X: 2310
T: I' OW'RE YOUNG
R: Scotch Jig.
%R: jig
B: James Kerr "Merry Melodies" v.2 p.34 #310
Z: 2016 John Chambers <jc:trillian.mit.edu>
M: 6/8
L: 1/8
K: D
uB |\
vA2vD uD2uE | F2E F2G | A2D D2E | F2E E2B |\
A2D D2E | F2E F2A | B2c d2B | A2F F2 :|
|: uA |\
vB2vc ud2uB | A2A f2e | d2B A2F | F2E E2A |\
B2c d2B | A2F f2e | d2B A2F | F2E E2 :|

%%sep 1 1 500
%%sep 1 1 500

